X:1
T:Prelude in G minor
T:Prelude in G minor
T:James K. Banks
T:Public Domain - Mutopia-2006/07/23-785
T:Public Domain - Mutopia-2006/07/23-785
T:Public Domain - Mutopia-2006/07/23-785
C:James K. Banks
Z:Public Domain - Mutopia-2006/07/23-785
%%score ( 1 2 3 ) ( 4 5 )
L:1/8
Q:1/4=60
M:4/4
K:Bb
V:1 treble nm="Hand Bells"
V:2 treble 
V:3 treble 
V:4 treble transpose=12 nm="Xylophone"
V:5 treble transpose=12 
V:1
 z2 G,2 ([G,C]4 | [G,D]4 [G,E]4) | z4 ^F3 F | GD CB, B,2 A,2 | z2 G,2 (CD E2 | DC ED DB,- B,2) | %6
 z2 [G,B,DG]2 (A4 | B4 A2 c2) | z2 G,2 ([G,C]4 | [G,D]4 [G,E]4) | z8 | z4 z2 (d2 | e2 dc B2 d2 | %13
 e2 dc z2 gf | e2 dc b2 c'b | a2 b^f) (ag d)B | (e6 ec | dced dc A2) | (G8 | G8 | z2 Bc d2 dB | %21
 A8 | B8 | A8 | z2 (Bc e2 dc | d8 | z2 Bc e2 dc | d8 | z2 Bc e2 dc | d8 | G8 | G8 | G4 G2)) z2 | %33
 z2 g4 a2 | b4 ^f2 g2 | (g8 | g8 | (g8) | g8 | g8 | g8 | g4) (g4 | g8) | g8 | (g8 | g8 | g8 | g8 | %48
 (g8) | g8 | g8 | (g8) | g8 | g8 | g8) | g8 | g8 | g8 | g8 | g8 | g8 | g8 | z2 G,2 ([G,C]4 | %63
 [G,D]4 [G,E]4) | z2 G,2 ^F3 F | GDCB, TB,2 A,2 | (G,8 | z8) | z8 | z8 |] %70
V:2
 x8 | x8 | x2 G,2 (G,2 A,2) | B,2 A,G, G,4 | x4 G,2 A,2 | B,2 B,2 A,3 B, | x4 (G2 ^F2 | %7
 E2 D2 ^F4) | x8 | x8 | x8 | x8 | x8 | z4 G4 | G8 | A3 D (B2 G,2) | z2 (GA B4 | B4 B4) | x8 | x8 | %20
 G8 | G8 | G8 | G4 F4 | G6 cG | B4 A4 | G6 cG | B4 A4 | G6 cG | B4 A4 | z4 F4 | E4 D4 | C4 x4 | %33
 x2 B6 | B4 d4 | e8 | d4 c B3 | (A4 F4 | F4 E4 | E4 D4 | D4 C4 | C4) (B,4 | B2) GA B2 AG | %43
 c2 AB c2 BA | G4 FABc | G2 GA/B/ ce f2 | e4 d4 | c8 | B2 GA B2 AG | c2 AB c2 BA | d2 ed c2 BA | %51
 B4 F4 | F4 E4 | E2 C2 D4 | c2 AB c2 BA | B4 A4 | (c2 AB d2 cB | A4 d4 | c2 AB GBde | c4 A2 BF | %60
 G8 | G8) | x8 | x8 | x4 G,2 x2 | B,2 A,G, G,4 | x8 | x8 | x8 | x8 |] %70
V:3
 x8 | x8 | x8 | x8 | x8 | x8 | x8 | x8 | x8 | x8 | x8 | x8 | x8 | x8 | x8 | x8 | x8 | x8 | x8 | %19
 x8 | x8 | x8 | x8 | x8 | x8 | x8 | x8 | x8 | x8 | x8 | x8 | x8 | x8 | x8 | x8 | x8 | x8 | x8 | %38
 x8 | x8 | x8 | x8 | x8 | x8 | x8 | x8 | x8 | x8 | x8 | x8 | x8 | x8 | x8 | x8 | x8 | x8 | x8 | %57
 x8 | x8 | x8 | x8 | x8 | x8 | x8 | x6 A,2 | x8 | x8 | x8 | x8 | x8 |] %70
V:4
 z4 (e'3 d') | (d'c'ba baga) | z4 (G2 d2 | G4 D4) | z4 EDC^F | (G2 GF F2) ^F2 | %6
 z4 (6:4:6d/=e/^f/g/a/b/ (6:4:6c'/a/f/d'/c'/a/ | %7
 (6:4:6b/g/d/B/d/g/ (6:4:6b/g/d/B/c/e/ (6:4:6a/^f/d/B/d/f/ (6:4:6a/B/d/a/g/f/ | %8
 (6:4:6b/a/g/f/e/d/ (6:4:6[Gc]/C/D/E/D/C/ (6:4:6A/C/D/E/D/C/ (6:4:6B/D/=E/^F/E/D/ | %9
 (6:4:6c/D/E/c/B/A/ (6:4:6B/D/G/A/B/d/ (6:4:6g/A/B/d/g/a/ (6:4:6b/d/c/a/g/e/ | %10
 (6:4:6d/D/^F/A/d/B/ (6:4:6e/D/F/A/e/c/ (6:4:6^f/D/F/c/f/d/ (6:4:6b/a/g/=f/e/d/ | %11
 (6:4:6e/d/c/B/A/G/ (6:4:6B/A/G/D/A/^F/ G4 | x4 B2 B2 | c2 BA z4 | c4 d4 | e4 ^f4 | %16
 z2 [Gdg][cc'] ([Bfd']4 | [Ggb]4 [Geb]4) | z2 GA B2 de | c2 dA cBAG | z2 GA B2 de | %21
 dF/A/ c/e/d/c/ dE/G/ B/d/c/A/ | B2 (3GAB B2 AG | A8 | z2 GA B2 de | d3 B d2 B2 | z2 GA B2 de | %27
 d3 B d2 B2 | z2 GA B2 de | d3 B d2 B2 | z2 GA B2 de | d3 B d2 B2 | A3 B c2 BA | z2 (d2 e4 | %34
 d2 c6 | c4 B4 | B6) de- | (e8 | g8 | f8 | e8 | d4) G4 | e4 d4 | c8 | cd e4 d2 | fdcd e2 d2 | %46
 B4 f4 | e4 c2 e2 | d4 e4 | ^f4 A4 | B4 e4 | f8 | g8 | a4 b4 | c4 d4 | e2 de dcBA | d4 e4 | %57
 c2 df edcB | e4 c4 | d2 cB A2 BA | G8 | G8 | z4 (e'3 d') | (d'c'ba baga) | z4 G2 d2 | G4 D4 | %66
 (G8 | z8) | z8 | z8 |] %70
V:5
 x4 c'4 | g8 | x4 z ((^FED | DED^C D4)) | x4 C2 C2 | (D2 CD D4) | x8 | x8 | x8 | x8 | x8 | x8 | %12
 (G8 | G8 | G8-) | G8 | x8 | x8 | x4 G4 | A2 ^F2 G4 | x8 | x8 | ^C2 z2 C4 | D8 | x2 DE G2 AB | %25
 G4 G4 | x2 DE G2 AB | G4 G4 | x2 DE G2 AB | G4 G4 | x2 D2 E4 | G3 ^F E2 D2 | C6 z2 | G2 (G6 | A8 | %35
 G8 | G8 | G8 | G8 | G8 | G8 | G4) D4 | G8 | G8 | G8 | G8 | G8 | G8 | (G8 | G8 | G8 | (G8) | G8 | %53
 G8 | G8 | G8) | G8 | G8 | G8 | G8 | G4 C2 E2 | D8 | x4 c'4 | g8 | x4 z ^FED | DED^C D4 | x8 | x8 | %68
 x8 | x8 |] %70

